X: 54
T:Puddlegum's Misery
% Nottingham Music Database
S:John Kirkpatrick
M:4/4
L:1/8
R:Hornpipe
K:Am
P:A
(3G_GF|"E7"E2e2 _e2d2|"Am"cBAB c2BA|"E7"^GEGB eBGE|"Am"AEAc ecAc|
"E7"E2e2 _e2d2|"Am"cBAB "F"c2BA|"E7"^GEGB edcB|"Am"A2A2 A2:|
P:B
(3B_BA|"G7"G2g2 _g2f2|"C"edcd e2dc|"G7"BGBd gdBd|"C"cBcd edcA|
"G7"G2g2 _g2f2|"C"edcd e4|"E7"(3EFE^DE edcB|"Am"A2A2 A2:|


